icons/layout_hybrid.svg

<?xml version="1.0" encoding="UTF-8" standalone="no"?>
<!-- Created with Inkscape (http://www.inkscape.org/) -->
<svg
   xmlns:svg="http://www.w3.org/2000/svg"
   xmlns="http://www.w3.org/2000/svg"
   version="1.0"
   width="64"
   height="64"
   id="svg2383">
  <defs
     id="defs2385" />
  <g
     id="layer3"
     style="display:none" />
  <g
     id="layer1"
     style="display:inline">
    <path
       d="M 13.627273,45.318215 L 3.2181818,45.269753 L 3.2181818,27.907604 L 3.2181818,10.545455 L 17.581818,10.545455 L 31.945455,10.545455 L 31.945455,28 L 31.945455,45.454545 L 27.990909,45.410611 C 25.815909,45.386445 19.352273,45.344865 13.627273,45.318211 L 13.627273,45.318215 z"
       id="path2454"
       style="fill:#afdde9;fill-opacity:1;stroke:#afdde9;stroke-width:0.227;stroke-linecap:round;stroke-linejoin:round;stroke-miterlimit:4;stroke-dasharray:none;stroke-opacity:1" />
    <path
       d="M 33.121319,27.965909 L 33.121319,10.539502 L 47.309092,10.539502 L 61.496862,10.539502 L 61.496862,27.965909 L 61.496862,45.392317 L 47.309092,45.392317 L 33.121319,45.392317 L 33.121319,27.965909 z"
       id="path2456"
       style="fill:#37c8ab;fill-opacity:1;stroke:#37c8ab;stroke-width:0.21481885;stroke-linecap:round;stroke-linejoin:round;stroke-miterlimit:4;stroke-dasharray:none;stroke-opacity:1" />
    <path
       d="M 3.2642064,47.974499 L 3.2642064,46.350844 L 15.48446,46.46812 C 22.205614,46.532623 35.305374,46.585396 44.59504,46.585396 L 61.485368,46.585396 L 61.485368,48.091773 L 61.485368,49.598152 L 32.374787,49.598152 L 3.2642064,49.598152 L 3.2642064,47.974499 z"
       id="path2458"
       style="fill:#3771c8;fill-opacity:1;stroke:#3771c8;stroke-width:0.31904945;stroke-linecap:round;stroke-linejoin:round;stroke-miterlimit:4;stroke-dasharray:none;stroke-opacity:1" />
  </g>
  <g
     id="layer2"
     style="display:inline">
    <text
       x="25.767044"
       y="49.335224"
       id="text2415"
       xml:space="preserve"
       style="font-size:3.5px;font-style:normal;font-weight:normal;writing-mode:lr-tb;fill:#000000;fill-opacity:1;stroke:none;stroke-width:1px;stroke-linecap:butt;stroke-linejoin:miter;stroke-opacity:1;font-family:Bitstream Vera Sans"><tspan
         x="25.767044"
         y="49.335224"
         id="tspan2417">Chatbar</tspan></text>
    <text
       x="-43.004704"
       y="51.743607"
       transform="matrix(0,-1,1,0,0,0)"
       id="text2419"
       xml:space="preserve"
       style="font-size:12px;font-style:normal;font-weight:normal;fill:#000000;fill-opacity:1;stroke:none;stroke-width:1px;stroke-linecap:butt;stroke-linejoin:miter;stroke-opacity:1;font-family:Bitstream Vera Sans"><tspan
         x="-43.004704"
         y="51.743607"
         id="tspan2421">Tree</tspan></text>
    <text
       x="-38.311523"
       y="20.851563"
       transform="matrix(0,-1,1,0,0,0)"
       id="text2397"
       xml:space="preserve"
       style="font-size:12px;font-style:normal;font-weight:normal;fill:#000000;fill-opacity:1;stroke:none;stroke-width:1px;stroke-linecap:butt;stroke-linejoin:miter;stroke-opacity:1;display:inline;font-family:Bitstream Vera Sans"><tspan
         x="-38.311523"
         y="20.851563"
         id="tspan2399">Log</tspan></text>
    <rect
       width="59.636364"
       height="40.545456"
       x="2.5454547"
       y="9.818182"
       id="rect2393"
       style="fill:none;fill-opacity:1;stroke:#000000;stroke-width:1.24699998;stroke-linecap:round;stroke-linejoin:round;stroke-miterlimit:4;stroke-dasharray:none;stroke-opacity:1;display:inline" />
    <path
       d="M 32.545455,45.859703 L 32.545455,9.7652972"
       id="path2403"
       style="fill:none;fill-rule:evenodd;stroke:#000000;stroke-width:0.94563776px;stroke-linecap:butt;stroke-linejoin:miter;stroke-opacity:1;display:inline" />
    <path
       d="M 2.5830783,45.855805 L 61.757831,45.962376"
       id="path2405"
       style="fill:none;fill-rule:evenodd;stroke:#000000;stroke-width:1.07524753px;stroke-linecap:butt;stroke-linejoin:miter;stroke-opacity:1;display:inline" />
  </g>
</svg>

<?xml version="1.0" encoding="UTF-8" standalone="no"?><!-- Created with Inkscape (http://www.inkscape.org/) --><svg xmlns:svg="http://www.w3.org/2000/svg" xmlns="http://www.w3.org/2000/svg" version="1.0" width="64" height="64" id="svg2383"><g stroke-linejoin="round" stroke-linecap="round"><path d="m13.627 45.32l-10.409-.048v-17.362-17.362h14.364 14.364v17.455 17.455l-3.955-.044c-2.175-.024-8.639-.066-14.364-.092z" fill="#afdde9" stroke="#afdde9" stroke-width=".227"/><path d="m33.12 27.966v-17.426h14.188 14.188v17.426 17.426h-14.188-14.188v-17.426z" fill="#37c8ab" stroke="#37c8ab" stroke-width=".215"/><path d="m3.264 47.974v-1.624l12.22.117c6.721.065 19.821.117 29.11.117h16.89v1.506 1.506h-29.11-29.11v-1.624z" fill="#3771c8" stroke="#3771c8" stroke-width=".319"/></g><g font-family="Bitstream Vera Sans"><text x="25.767" y="49.34" font-size="3.5"><tspan x="25.767" y="49.34">Chatbar</tspan></text><g font-size="12" transform="matrix(0-1 1 0 0 0)"><text x="-43" y="51.744"><tspan x="-43" y="51.744">Tree</tspan></text><text x="-38.31" y="20.852"><tspan x="-38.31" y="20.852">Log</tspan></text></g></g><g fill="none" stroke="#000"><path stroke-linejoin="round" stroke-linecap="round" stroke-width="1.247" d="m2.545 9.818h59.64v40.545h-59.64z"/><g fill-rule="evenodd"><path d="m32.545 45.86v-36.09" stroke-width=".946"/><path d="m2.583 45.856l59.17.107" stroke-width="1.075"/></g></g></svg>
